X:1
T:Title
%%score { ( 1 3 5 ) | ( 2 4 ) }
L:1/8
Q:1/4=100
M:9/8
K:F
V:1 treble nm="Grand Piano"
V:3 treble 
V:5 treble 
V:2 bass 
V:4 bass 
V:1
 A3- ABA [EG]DE | F3 C3 CFA | [CAc]3- [CAc][Bd][Ac] [GB][B,DF][B,EG] | [FA]6 z3 | %4
w: James~McGranahan * * * * * *||||
 [DFA]3- [DFA][EGB][DFA] [^CEA][D=B][E^c] | [Fd]3 [FA]3 AEF | G3- GAG GA=B |[M:3/4] [CEc]6 | %8
w: ||||
[M:3/8] d3 |[M:9/8] [Ac]3- [Ac]dc BFG | .[CFA]3 .[CAc]3 d3 | [Ac]3- [Ac]dc BFG | [FA]6 FAc | %13
w: |||||
 .[Af]6 z3 | [DG]3 [GB]3 [Bd]3 | %15
w: ||
 [Be]3- [Be][Gd][Gc] [Ed][Ec]E[Q:1/4=99][Q:1/4=97][Q:1/4=96][Q:1/4=94][Q:1/4=93][Q:1/4=91] | %16
w: |
 F8-[Q:1/4=76] F[Q:1/4=90][Q:1/4=88][Q:1/4=87][Q:1/4=85][Q:1/4=84][Q:1/4=82][Q:1/4=81][Q:1/4=79][Q:1/4=78] |] %17
w: |
V:2
 [F,CF]3- [F,CF][F,DF][F,CF] [C,B,][F,C][C,G,C] | [F,A,C]3 [F,A,]3 z3 | F,3- F,F,F, [C,E,]C,C, | %3
 z C2- C3 z3 | D,3- D,^C,D, A,,[A,,A,][A,,A,] | [D,A,]3 [D,D]3 z3 | %6
 [G,=B,F]3- [G,B,F][G,B,F][G,B,F] [G,B,F][G,CF][G,DF] |[M:3/4][K:bass] C,6 |[M:3/8] B3 | %9
[M:9/8] .F,3 z[K:treble] BA GDE | .F,3 .F,3[K:treble] B3 | .F,3 z[K:treble] BA GDE | %12
 .F,3 F,A,C [F,A,]3 | .[F,C]3 z[K:treble] cB AGF | B,,B,,B,, B,,B,,B,, [B,,G,]B,,B,, | %15
 [C,G,]3- [C,G,][C,B,][C,B,] [C,B,][C,B,][C,B,C] | [F,A,C]8- [F,A,C] |] %17
V:3
 x9 | x9 | x9 | .A,3 z3 z3 | x9 | x9 | x9 |[M:3/4] x6 |[M:3/8] x3 |[M:9/8] .C3 .C3 z3 | x9 | %11
 .F3 .F3 z3 | .C3 z3 z3 | z3 z ed cBA | B,B,B, DDD z G,G, | x9 | x9 |] %17
V:4
 x9 | x9 | x9 | F,6 z3 | x9 | x9 | x9 |[M:3/4][K:bass] x6 |[M:3/8] x3 | %9
[M:9/8] z3 .F,3[K:treble] z3 | x6[K:treble] x3 | z3 .F,3[K:treble] z3 | x9 | z3 .F,3[K:treble] z3 | %14
 x9 | x9 | x9 |] %17
V:5
 x9 | x9 | x9 | x9 | x9 | x9 | x9 |[M:3/4] x6 |[M:3/8] x3 |[M:9/8] x9 | x9 | x9 | x9 | z3 .C3 z3 | %14
 x9 | x9 | x9 |] %17

